!!!COM: Palestrina, Giovanni Perluigi da
!!!OPR: Panem nostrum
!!!OTL: Benedictus
**kern	**kern	**kern	**kern
*Ibarit	*Icalto	*Icant	*Icant
!Baritone	!Altus	!Cantus 2	!Cantus 1
*clefF4	*clefG2	*clefG2	*clefG2
*k[b-]	*k[b-]	*k[b-]	*k[b-]
*G:dor	*G:dor	*G:dor	*G:dor
*M4/2	*M4/2	*M4/2	*M4/2
=1	=1	=1	=1
0r	0d	1r	0r
.	.	[1a	.
=2	=2	=2	=2
0r	1c	1a]	0r
.	1e-	1g	.
=3	=3	=3	=3
0r	2d	1b-	0dd
.	2B-	.	.
.	2.d	2a	.
.	.	2f	.
.	4e	.	.
=4	=4	=4	=4
0r	1f	2.a	1cc
.	.	4b-	.
.	2c	2cc	1ee-
.	2c	4g	.
.	.	4a	.
=5	=5	=5	=5
0r	0g	4b-	2dd
.	.	4cc	.
.	.	2.dd	2b-
.	.	.	2.dd
.	.	4cc	.
.	.	[2b-	.
.	.	.	4ee
=6	=6	=6	=6
0r	1d	2b-]	1.ff
.	.	4a	.
.	.	4g	.
.	1r	2.a	.
.	.	.	4ee
.	.	4b-	4dd
=7	=7	=7	=7
0r	0a	2cc	2ee
.	.	1dd	2ff
.	.	.	2ee
.	.	2cc#	2a
=8	=8	=8	=8
0r	1g	1dd	1b-
.	1b-	2r	1g
.	.	2dd	.
=9	=9	=9	=9
0r	2a	2cc	2r
.	2f	2ff	2dd
.	2a	2ee	2cc
.	2b-	[2dd	2ff
=10	=10	=10	=10
0r	2cc	4dd]	1ee
.	.	4cc	.
.	2c	1cc	.
.	1g	.	1dd
.	.	2b-	.
=11	=11	=11	=11
0F	2.a	1cc	2.ff
.	4g	.	4ee
.	2f	1a	2dd
.	2e	.	2cc
=12	=12	=12	=12
1G	2d	1g	2.b-
.	4g	.	.
.	4f	.	4a
1G	4e	1b-	2g
.	4d	.	.
.	[2d	.	2dd
=13	=13	=13	=13
0A	2d]	[0a	2ff
.	2c	.	4ee
.	.	.	4dd
.	1f	.	2cc
.	.	.	[2dd
=14	=14	=14	=14
1A	0e	1a]	2dd]
.	.	.	4cc#
.	.	.	4b
1A	.	2r	1cc#
.	.	2a	.
=15	=15	=15	=15
0G	2r	2.b-	0dd
.	2g	.	.
.	.	4a	.
.	2.b-	4g	.
.	.	4a	.
.	.	4b-	.
.	4a	4cc	.
=16	=16	=16	=16
0B-	2g	4dd	2r
.	.	4ee	.
.	4f	2.ff	2dd
.	4e	.	.
.	4d	.	1ff
.	4e	4ee	.
.	4f	2dd	.
.	4g	.	.
=17	=17	=17	=17
0A	1a	2cc	2ff
.	.	1dd	4ee
.	.	.	4dd
.	2a	.	2ee
.	2e	2cc	2a
=18	=18	=18	=18
0G	2.g	2dd	4b-
.	.	.	4a
.	.	2b-	4g
.	8f	.	4a
.	8e	.	.
.	2.d	4g	4b-
.	.	4a	4cc
.	.	4b-	[2dd
.	4e	4g	.
=19	=19	=19	=19
0F	0f	2a	2dd]
.	.	1b-	4cc
.	.	.	4b-
.	.	.	1cc
.	.	2a	.
=20	=20	=20	=20
0r	2.B-	2b-	2dd
.	.	2dd	2b-
.	4A	.	.
.	4B-	2dd	2b-
.	4c	.	.
.	4d	2dd	2b-
.	4e	.	.
=21	=21	=21	=21
0r	1f	2cc	2a
.	.	4a	4f
.	.	4b-	4g
.	1r	4cc	4a
.	.	4dd	4b-
.	.	4ee-	4cc
.	.	4cc	4a
=22	=22	=22	=22
0G	2r	2dd	2.b-
.	2b-	2dd	.
.	.	.	4cc
.	2b-	1g	2dd
.	2b-	.	2ee
=23	=23	=23	=23
1F	2a	2r	1ff
.	4f	2.cc	.
.	4g	.	.
1F	4a	.	1ff
.	4b-	4b-	.
.	4cc	2a	.
.	4a	.	.
=24	=24	=24	=24
0G	2.b-	4g	1dd
.	.	4a	.
.	.	2.b-	.
.	4a	.	.
.	4g	.	1r
.	4f	4a	.
.	4e	[2g	.
.	4d	.	.
=25	=25	=25	=25
0A	1.c	2g]	2r
.	.	4f#	2cc
.	.	4e	.
.	.	2f#	2cc
.	2c	2f#	2cc
=26	=26	=26	=26
0G	1d	2g	2b-
.	.	2dd	4g
.	.	.	4a
.	1r	2dd	4b-
.	.	.	4a
.	.	2dd	4b-
.	.	.	4cc
=27	=27	=27	=27
0G	2r	2b-	1.dd
.	2g	4g	.
.	.	4a	.
.	2g	4b-	.
.	.	4cc	.
.	2g	4dd	2b-
.	.	4b-	.
=28	=28	=28	=28
0r	2f	2cc	2a
.	4d	2dd	2ff
.	4e	.	.
.	4f	4a	2ff
.	4g	4b-	.
.	4a	4cc	2ff
.	4f	4a	.
=29	=29	=29	=29
0r	2g	4b-	1dd
.	.	4cc	.
.	2b-	1dd	.
.	1a	.	2ee
.	.	2cc#	2ee
=30	=30	=30	=30
0G	2r	1dd	0dd
.	2b-	.	.
.	2b-	1r	.
.	2b-	.	.
=31	=31	=31	=31
1.F	2a	2r	0r
.	4f	2cc	.
.	4g	.	.
.	4a	2cc	.
.	4g	.	.
2F	4f	2cc	.
.	4e	.	.
=32	=32	=32	=32
0G	4d	2b-	0r
.	4c	.	.
.	4B-	4g	.
.	4A	4a	.
.	2G	4b-	.
.	.	4cc	.
.	[2g	4dd	.
.	.	4b-	.
=33	=33	=33	=33
0A	2g]	1cc	2r
.	4f#	.	2cc
.	4e	.	.
.	2f#	1a	2cc
.	2f#	.	2cc
=34	=34	=34	=34
0G	0g	0dd	2b-
.	.	.	4g
.	.	.	4a
.	.	.	4b-
.	.	.	4cc
.	.	.	4dd
.	.	.	4b-
=35	=35	=35	=35
[0G	2r	4g	2ee-
.	.	4a	.
.	2d	4b-	1dd
.	.	4cc	.
.	2B-	4dd	.
.	.	4b-	.
.	2c	[2ee-	[2cc
=36	=36	=36	=36
0G]	1d	2ee-]	2cc]
.	.	1dd	4b
.	.	.	4a
.	[1g	.	2b
.	.	[2cc	2cc
=37	=37	=37	=37
[0G	1g]	2cc]	2.dd
.	.	4b	.
.	.	4a	4cc
.	1g	2b	2dd
.	.	2cc	2ee-
=38	=38	=38	=38
0G]	0g	0b	0dd
*-	*-	*-	*-
!! Hosanna
**kern	**kern	**kern	**kern	**kern
*Ibass	*Ibarit	*Itenor	*Icalto	*Icant
!Bassus	!Baritone	!Tenor	!Altus	!Cantus
*clefF4	*clefF4	*clefGv2	*clefG2	*clefG2
*k[b-]	*k[b-]	*k[b-]	*k[b-]	*k[b-]
*G:dor	*G:dor	*G:dor	*G:dor	*G:dor
*M3/2	*M3/2	*M3/2	*M3/2	*M3/2
=39	=39	=39	=39	=39
1r	1.F	2f	2a	2cc
.	.	2f	2a	2cc
2r	.	2f	2a	2cc
=40	=40	=40	=40	=40
1r	1.G	2d	2g	2b-
.	.	2B-	2d	2g
2r	.	2d	2g	2b-
=41	=41	=41	=41	=41
1r	1.A	2.c	2.e	2.a
.	.	4d	4d	4b-
2r	.	2e	4c	2cc
.	.	.	4B-	.
=42	=42	=42	=42	=42
2F	1.A	2f	1c	2a
2F	.	2f	.	2a
2F	.	2c	2r	2a
=43	=43	=43	=43	=43
2E-	1.G	2.e-	2g	2b-
2C	.	.	2g	2cc
.	.	4d	.	.
2E-	.	4B-	2g	2g
.	.	4c	.	.
=44	=44	=44	=44	=44
2D	1.B-	4d	2f	2dd
.	.	4e	.	.
2.BB-	.	2.f	2.d	2dd
.	.	.	.	2ff
4C	.	4e	4e	.
=45	=45	=45	=45	=45
1D	1.A	1d	4f	2.f
.	.	.	4g	.
.	.	.	4a	.
.	.	.	4g	4g
2F	.	2c	2f	4a
.	.	.	.	4b-
=46	=46	=46	=46	=46
2.C	1.G	1g	2.e	2.cc
4BB	.	.	4d	4dd
2C	.	2g	2e	2cc
=47	=47	=47	=47	=47
1.F	1.F	2c	1f	1a
.	.	2c	.	.
.	.	2c	2a	2r
=48	=48	=48	=48	=48
2E-	1.G	2B-	2g	1r
2E-	.	2B-	4G	.
.	.	.	4A	.
2E-	.	2G	4B-	2r
.	.	.	4c	.
=49	=49	=49	=49	=49
2D	1.F	2A	2.d	2ff
2BB-	.	2B-	.	2ff
.	.	.	4e	.
2D	.	2A	4f	2ff
.	.	.	4d	.
=50	=50	=50	=50	=50
2C	1.G	2c	1e	2ee
2C	.	2c	.	2cc
2G	.	2B-	2g	[2dd
=51	=51	=51	=51	=51
2.D	1A	2.d	2.f	4dd]
.	.	.	.	8cc
.	.	.	.	8b-
.	.	.	.	1a
4C	.	4e	4e	.
2D	2A	2f#	[2d	.
=52	=52	=52	=52	=52
1.G	1.G	2g	4d]	2.b-
.	.	.	4c	.
.	.	2g	4B-	.
.	.	.	4A	4cc
.	.	2g	2B-	2dd
=53	=53	=53	=53	=53
1.C	1.G	2g	2c	2ee-
.	.	2e-	1g	2ee-
.	.	2c	.	2ee-
=54	=54	=54	=54	=54
1r	1.G	1d	2b-	2dd
.	.	.	2b-	2b-
2r	.	2B-	2b-	[2dd
=55	=55	=55	=55	=55
2D	1.F	2f	2a	4dd]
.	.	.	.	4ee
2D	.	2f	2f	2ff
2D	.	2f	2a	2dd
=56	=56	=56	=56	=56
1C	1.G	2e-	1cc	1ee-
.	.	2c	.	.
2G	.	2d	2b-	2dd
=57	=57	=57	=57	=57
2.D	1A	2.f	1a	2.dd
4C	.	4e	.	4ee
2D	2A	2d	2a	2ff#
=58	=58	=58	=58	=58
2G	1.G	2B	1d	2gg
2r	.	2B	.	2dd
2G	.	2B	2g	2dd
=59	=59	=59	=59	=59
2C	[1.G	1c	2.g	1ee-
2C	.	.	.	.
.	.	.	4g	.
2C	.	2e-	2g	2cc
=60	=60	=60	=60	=60
2G	1.G]	2d	2g	2b
1C	.	1e-	1g	1cc
=61	=61	=61	=61	=61
1.G	1.G	1.d	1.g	1.b
==	==	==	==	==
*-	*-	*-	*-	*-
!!!CDT: 1525/^1526/-1594/2/2
!!!OCY: Italia
!!!AGN: Mass (Tenor)
!!!AST: renaissance, vocal
!!!ASW: Prayer
!!!PWK: Masses, Book 10
!!!RNB: Cadence finals: C
!!!YOR: Le Opere Complete, v. 27, p. 226
!!!YOO: Rome, Italy: Fratelli Scalera
!!!END: 1992//
!!!EED: John Miller
!!!YEC: Copyright 2000, John Miller
!!!YEN: United States of America
!!!YEM: Rights to all derivative electronic formats reserved.
!!!YEM: Refer to licensing agreement for further details.
!!!YEM: This file must be accompanied by the licensing agreement.
!!!YEM: A copy of the licensing agreement may be found at http://www.music-cog.ohio-state.edu/HumdrumDatabases/Palestrina/license.txt
!!!EMD: converted to Humdrum by Bret Aarden
